icon-svg/rooms-laundry-room.svg

<svg xmlns="http://www.w3.org/2000/svg" fill="#44739e" viewBox="0 0 24 24"><path d="M25 6c-.553 0-1-.447-1-1s.447-1 1-1 1 .447 1 1-.447 1-1 1m-9 20c-4.418 0-8-3.582-8-8s3.582-8 8-8 8 3.582 8 8-3.582 8-8 8M6 5c0-.553.447-1 1-1h4c.553 0 1 .447 1 1s-.447 1-1 1H7c-.553 0-1-.447-1-1m15-1c.553 0 1 .447 1 1s-.447 1-1 1-1-.447-1-1 .447-1 1-1m1 12.0283c-.983.152-1.721.975-1.721 1.972s.738 1.819 1.721 1.971c-.842 2.341-3.132 4.029-5.825 4.029-3.405 0-6.175-2.692-6.175-6 0-3.309 2.77-6 6.175-6 2.693 0 4.983 1.687 5.825 4.028M27 2H5c-.553 0-1 .447-1 1v26c0 .553.447 1 1 1h22c.553 0 1-.447 1-1V3c0-.553-.447-1-1-1"/></svg>

<?xml version="1.0" encoding="UTF-8"?>
<svg width="32px" height="32px" viewBox="0 0 32 32" fill="#44739e" version="1.1" xmlns="http://www.w3.org/2000/svg" xmlns:xlink="http://www.w3.org/1999/xlink">
            <path d="M25,6 C24.447,6 24,5.553 24,5 C24,4.447 24.447,4 25,4 C25.553,4 26,4.447 26,5 C26,5.553 25.553,6 25,6 M16,26 C11.582,26 8,22.418 8,18 C8,13.582 11.582,10 16,10 C20.418,10 24,13.582 24,18 C24,22.418 20.418,26 16,26 M6,5 C6,4.447 6.447,4 7,4 L11,4 C11.553,4 12,4.447 12,5 C12,5.553 11.553,6 11,6 L7,6 C6.447,6 6,5.553 6,5 M21,4 C21.553,4 22,4.447 22,5 C22,5.553 21.553,6 21,6 C20.447,6 20,5.553 20,5 C20,4.447 20.447,4 21,4 Z M22,16.0283 C21.017,16.1803 20.279,17.0033 20.279,18.0003 C20.279,18.9973 21.017,19.8193 22,19.9713 C21.158,22.3123 18.868,24.0003 16.175,24.0003 C12.77,24.0003 10,21.3083 10,18.0003 C10,14.6913 12.77,12.0003 16.175,12.0003 C18.868,12.0003 21.158,13.6873 22,16.0283 Z M27,2 L5,2 C4.447,2 4,2.447 4,3 L4,8 L4,29 C4,29.553 4.447,30 5,30 L27,30 C27.553,30 28,29.553 28,29 L28,8 L28,3 C28,2.447 27.553,2 27,2"></path>
</svg>
